packages/components/icon/src/assets/icons/fileaccess.svg

<svg width="24" height="24" viewBox="0 0 24 24" fill="none" xmlns="http://www.w3.org/2000/svg">
<path fill-rule="evenodd" clip-rule="evenodd" d="M21.3295 5.43182C21.532 5.43182 21.702 5.50052 21.8394 5.63791C21.9768 5.77531 22.0455 5.94525 22.0455 6.14773V19.5114C22.0455 19.7138 21.9768 19.8838 21.8394 20.0212C21.702 20.1586 21.532 20.2273 21.3295 20.2273H2.71591C2.52789 20.2273 2.36157 20.1586 2.21694 20.0212C2.07231 19.8838 2 19.7138 2 19.5114V4.71591C2 4.51343 2.0687 4.34349 2.2061 4.2061C2.34349 4.0687 2.51343 4 2.71591 4H8.31302C8.41426 4 8.52273 4.02531 8.63843 4.07593C8.75413 4.12655 8.84091 4.18802 8.89876 4.26033L9.94008 5.43182H21.3295ZM16.6436 17.407C17.3378 17.407 17.9344 17.1575 18.4334 16.6586C18.9323 16.1596 19.1818 15.5558 19.1818 14.8471C19.1818 14.1529 18.9323 13.5563 18.4334 13.0573C17.9344 12.5584 17.3378 12.3089 16.6436 12.3089C16.3543 12.3089 16.0795 12.3523 15.8192 12.439V12.3089C15.8192 11.5857 15.6384 10.9168 15.2769 10.3022C14.9153 9.6875 14.4272 9.19938 13.8125 8.83781C13.1978 8.47624 12.5289 8.29545 11.8058 8.29545C11.0971 8.29545 10.4354 8.46901 9.82076 8.81612C9.20609 9.16322 8.71798 9.63326 8.3564 10.2262C8.25516 10.2118 8.10331 10.2045 7.90083 10.2045C7.25 10.2045 6.6498 10.3673 6.10021 10.6927C5.55062 11.0181 5.11312 11.4556 4.78771 12.0052C4.46229 12.5548 4.29959 13.155 4.29959 13.8058C4.29959 14.4566 4.46229 15.0568 4.78771 15.6064C5.11312 16.156 5.55062 16.5935 6.10021 16.9189C6.6498 17.2443 7.25 17.407 7.90083 17.407H16.6436Z" fill="currentColor"/>
</svg>

<svg viewBox="0 0 24 24" fill="none" xmlns="http://www.w3.org/2000/svg"><path fill-rule="evenodd" clip-rule="evenodd" d="M21.33 5.432c.202 0 .372.069.51.206a.692.692 0 0 1 .206.51V19.51a.693.693 0 0 1-.207.51.693.693 0 0 1-.51.206H2.716a.703.703 0 0 1-.5-.206.675.675 0 0 1-.216-.51V4.716c0-.203.069-.373.206-.51A.692.692 0 0 1 2.716 4h5.597c.101 0 .21.025.325.076.116.05.203.112.26.184L9.94 5.432h11.39Zm-4.686 11.975c.694 0 1.29-.25 1.79-.748a2.468 2.468 0 0 0 .748-1.812c0-.694-.25-1.29-.749-1.79a2.443 2.443 0 0 0-1.79-.748 2.58 2.58 0 0 0-.824.13v-.13c0-.723-.18-1.392-.542-2.007a4.061 4.061 0 0 0-1.464-1.464 3.888 3.888 0 0 0-2.007-.543c-.709 0-1.37.174-1.985.521a3.972 3.972 0 0 0-1.465 1.41 3.517 3.517 0 0 0-.455-.022 3.47 3.47 0 0 0-1.8.489c-.55.325-.988.763-1.313 1.312a3.47 3.47 0 0 0-.488 1.8c0 .652.162 1.252.488 1.801.325.55.763.987 1.312 1.313a3.47 3.47 0 0 0 1.8.488h8.744Z" fill="currentColor"/></svg>
